symbols-de/shields/motorway_9x4_z16.svg

<?xml version="1.0" encoding="UTF-8" standalone="no"?>
<svg
   xmlns:dc="http://purl.org/dc/elements/1.1/"
   xmlns:cc="http://creativecommons.org/ns#"
   xmlns:rdf="http://www.w3.org/1999/02/22-rdf-syntax-ns#"
   xmlns:svg="http://www.w3.org/2000/svg"
   xmlns="http://www.w3.org/2000/svg"
   xmlns:sodipodi="http://sodipodi.sourceforge.net/DTD/sodipodi-0.dtd"
   xmlns:inkscape="http://www.inkscape.org/namespaces/inkscape"
   width="100%"
   height="100%"
   viewBox="0 0 68.0 46.0"
   id="svg2"
   version="1.1"
   inkscape:version="0.91 r13725"
   sodipodi:docname="autobahn_9x4_z16.svg">
  <metadata
     id="metadata9">
    <rdf:RDF>
      <cc:Work
         rdf:about="">
        <dc:format>image/svg+xml</dc:format>
        <dc:type
           rdf:resource="http://purl.org/dc/dcmitype/StillImage" />
        <dc:title></dc:title>
      </cc:Work>
    </rdf:RDF>
  </metadata>
  <defs
     id="defs7" />
  <sodipodi:namedview
     pagecolor="#ffffff"
     bordercolor="#666666"
     borderopacity="1"
     objecttolerance="10"
     gridtolerance="10"
     guidetolerance="10"
     inkscape:pageopacity="0"
     inkscape:pageshadow="2"
     inkscape:window-width="1297"
     inkscape:window-height="908"
     id="namedview5"
     showgrid="false"
     inkscape:zoom="5.1304348"
     inkscape:cx="34"
     inkscape:cy="23"
     inkscape:window-x="232"
     inkscape:window-y="44"
     inkscape:window-maximized="0"
     inkscape:current-layer="svg2" />
  <path
     style="fill:#365eaf;fill-opacity:1;stroke:#0528a2;stroke-width:0.99999994;stroke-miterlimit:4;stroke-dasharray:none;stroke-opacity:1"
     d="m 34.000001,0.50000903 c -0.480284,0 -0.719727,0.0036 -0.719727,0.01286 L 1.582104,2.455037 c -0.72043103,0.09313 -1.08210403,0.233905 -1.08210403,0.420161 0,13.416538 0,26.833076 0,40.249616 0,0.186255 0.361673,0.327035 1.08210403,0.420159 l 31.69817,1.942167 c 0,0.0093 0.239447,0.01286 0.719727,0.01286 0.480286,0 0.719727,-0.0036 0.719727,-0.01286 l 31.698166,-1.942168 c 0.720433,-0.09313 1.082104,-0.233904 1.082104,-0.420159 0,-13.416539 0,-26.833078 0,-40.249616 0,-0.186256 -0.361671,-0.327035 -1.082104,-0.420161 L 34.719728,0.51286803 c 0,-0.0093 -0.239448,-0.01286 -0.719727,-0.01286 z"
     id="path6"
     inkscape:connector-curvature="0"
     sodipodi:nodetypes="sccccccsccccccs" />
</svg>

<?xml version="1.0" encoding="UTF-8"?>
<svg xmlns="http://www.w3.org/2000/svg" xmlns:xlink="http://www.w3.org/1999/xlink" width="64pt" height="62pt" viewBox="0 0 64 62" version="1.1">
<g id="surface1">
<path style="fill-rule:nonzero;fill:rgb(21.176471%,36.862745%,68.627451%);fill-opacity:1;stroke-width:1;stroke-linecap:butt;stroke-linejoin:miter;stroke:rgb(1.960784%,15.686275%,63.529412%);stroke-opacity:1;stroke-miterlimit:4;" d="M 34 0.501386 C 33.518555 0.501386 33.281982 0.504284 33.281982 0.512979 L 1.581299 2.454763 C 0.863281 2.547505 0.498047 2.689516 0.498047 2.875 C 0.498047 16.290701 0.498047 29.709299 0.498047 43.125 C 0.498047 43.310484 0.863281 43.452495 1.581299 43.545237 L 33.281982 45.487021 C 33.281982 45.495716 33.518555 45.498614 34 45.498614 C 34.481445 45.498614 34.718018 45.495716 34.718018 45.487021 L 66.418701 43.545237 C 67.136719 43.452495 67.501953 43.310484 67.501953 43.125 C 67.501953 29.709299 67.501953 16.290701 67.501953 2.875 C 67.501953 2.689516 67.136719 2.547505 66.418701 2.454763 L 34.718018 0.512979 C 34.718018 0.504284 34.481445 0.501386 34 0.501386 Z M 34 0.501386 " transform="matrix(0.941176,0,0,1.347826,0,0)"/>
</g>
</svg>
